X: 1
T: The Road To Garrison
R: reel
M: 4/4
L: 1/8
K: Dmaj
|:A3B ADFA | BFAF EGFE | DA,~A,2 DFAF | GBAG FD~D2 |
A3B ADFA | BFAF EGFE | DB,~B,2 A,2 dB | AFEG FD~D2 :|
|:d3f af~f2 | afbf afef | ~d2fd Adfa | bfaf ~e3 z |
fa~a2 afdf | gfeg fedB | ABde fdAF | GFEG FD~D2 :|


Tune 2698	Setting 26069

